assets/img/icons8_poison_1.svg

<svg xmlns="http://www.w3.org/2000/svg" viewBox="0 0 50 50">
  <path d="M25 0C15.625 0 8 5.976563 8 13.3125C8 16.292969 8.769531 17.703125 9.5 19.09375C10.15625 20.34375 10.757813 21.550781 10.9375 24.0625C11.941406 22.421875 13 20.589844 13 18.40625C13 15.589844 12.039063 12.3125 12.03125 12.28125C11.875 11.75 12.1875 11.1875 12.71875 11.03125C13.25 10.878906 13.8125 11.1875 13.96875 11.71875C14.011719 11.863281 15 15.296875 15 18.40625C15 21.292969 13.601563 23.589844 12.46875 25.4375C12.074219 26.082031 11.703125 26.664063 11.4375 27.21875C12.046875 28.113281 13.300781 28.46875 15.3125 28.78125C17.398438 29.105469 20 29.484375 20 32.1875C20 32.734375 21.992188 34.09375 25 34.09375C28.007813 34.09375 30 32.734375 30 32.1875C30 29.421875 32.613281 29.035156 34.71875 28.71875C36.703125 28.417969 37.957031 28.09375 38.5625 27.21875C38.292969 26.667969 37.925781 26.082031 37.53125 25.4375C36.398438 23.589844 35 21.292969 35 18.40625C35 15.296875 35.988281 11.863281 36.03125 11.71875C36.1875 11.1875 36.75 10.878906 37.28125 11.03125C37.808594 11.1875 38.125 11.75 37.96875 12.28125C37.960938 12.3125 37 15.589844 37 18.40625C37 20.589844 38.058594 22.449219 39.0625 24.09375C39.242188 21.652344 39.855469 20.453125 40.5 19.21875C41.238281 17.8125 42 16.363281 42 13.3125C42 5.976563 34.375 0 25 0 Z M 19.8125 18C21.710938 18 23 19.988281 23 21.6875C23 24.289063 21.292969 26 18.59375 26C17.492188 26 16 24.988281 16 21.6875C16 19.585938 17.613281 18 19.8125 18 Z M 30.1875 18C32.386719 18 34 19.585938 34 21.6875C34 24.988281 32.507813 26 31.40625 26C28.707031 26 27 24.289063 27 21.6875C27 19.988281 28.289063 18 30.1875 18 Z M 4.5625 21.03125C3.445313 20.988281 2.425781 21.566406 1.84375 22.65625C1.347656 23.585938 1.242188 24.710938 1.53125 25.6875C0.519531 26.386719 0 27.246094 0 28.90625C0 30.878906 1.554688 32.59375 3.3125 32.59375C4.230469 32.59375 4.761719 32.328125 5.125 32.15625C5.355469 32.050781 5.4375 32.03125 5.53125 32.03125C5.671875 32.03125 5.964844 32.109375 6.625 32.4375L13.90625 35.40625C13.828125 33.605469 13.671875 31.5625 13.40625 30.46875C11.882813 30.128906 10.609375 29.5625 9.78125 28.34375C9.378906 27.753906 9.3125 27.019531 9.625 26.375C9.648438 26.328125 9.695313 26.265625 9.71875 26.21875C9.390625 26.09375 9.066406 25.957031 8.75 25.84375C8.113281 25.613281 8.027344 25.375 7.90625 24.5C7.773438 23.546875 7.574219 22.121094 5.6875 21.28125C5.3125 21.117188 4.933594 21.046875 4.5625 21.03125 Z M 45.4375 21.03125C45.0625 21.046875 44.664063 21.117188 44.28125 21.28125C42.402344 22.117188 42.199219 23.578125 42.0625 24.53125C41.941406 25.40625 41.902344 25.628906 41.21875 25.875C40.921875 25.996094 40.613281 26.121094 40.3125 26.25C40.328125 26.28125 40.359375 26.3125 40.375 26.34375C40.691406 26.992188 40.628906 27.78125 40.21875 28.375C39.367188 29.605469 37.984375 30.113281 36.4375 30.4375C36.214844 31.574219 36.121094 33.511719 36.0625 35.21875L43.4375 32.40625C44.03125 32.109375 44.328125 32.03125 44.46875 32.03125C44.5625 32.03125 44.644531 32.082031 44.875 32.1875C45.238281 32.359375 45.769531 32.59375 46.6875 32.59375C48.445313 32.59375 50 30.875 50 28.90625C50 27.324219 49.507813 26.519531 48.46875 25.75C48.773438 24.761719 48.660156 23.601563 48.15625 22.65625C47.574219 21.570313 46.558594 20.988281 45.4375 21.03125 Z M 24.90625 26C26.105469 26 28 30.210938 28 30.8125C28 31.511719 27.511719 31.90625 26.8125 31.90625C26.011719 31.90625 25.105469 29.699219 24.90625 29L24.8125 29C24.113281 31 23.492188 32 23.09375 32C22.292969 32 22 31.492188 22 30.59375C22 28.992188 23.707031 26 24.90625 26 Z M 15.53125 30.8125C15.804688 32.5625 15.898438 35.085938 15.96875 37.03125C15.996094 37.816406 16.027344 38.671875 16.0625 39.03125C16.847656 39.996094 21.578125 44 25 44C28.4375 44 33.214844 39.980469 33.9375 38.96875C33.964844 38.675781 34.011719 37.734375 34.03125 36.90625C34.089844 34.585938 34.160156 32.394531 34.375 30.8125C33.75 30.917969 33.261719 31.03125 32.90625 31.15625C32.777344 31.945313 32.683594 32.65625 32.59375 33.3125C31.964844 37.941406 31.410156 40 25 40C18.496094 40 17.945313 37.945313 17.34375 33.28125C17.261719 32.644531 17.179688 31.949219 17.0625 31.1875C16.6875 31.0625 16.191406 30.925781 15.53125 30.8125 Z M 19.5625 34.625C19.878906 36.578125 20.3125 37.46875 22 37.8125L22 35.71875C21.054688 35.460938 20.21875 35.078125 19.5625 34.625 Z M 30.375 34.6875C29.730469 35.121094 28.910156 35.46875 28 35.71875L28 37.78125C29.609375 37.433594 30.050781 36.585938 30.375 34.6875 Z M 24 36.0625L24 38C24.3125 38.007813 24.640625 38 25 38C25.359375 38 25.6875 38.007813 26 38L26 36.0625C25.671875 36.089844 25.339844 36.09375 25 36.09375C24.660156 36.09375 24.328125 36.089844 24 36.0625 Z M 36 37.4375C35.960938 38.945313 35.9375 39.347656 35.84375 39.625C35.683594 40.1875 34.476563 41.441406 32.8125 42.6875C34.332031 43.425781 37.511719 44.984375 38.5 45.6875C38.613281 45.8125 38.769531 46.367188 38.875 46.71875C39.238281 47.949219 39.839844 50 42.1875 50C43.746094 50 44.578125 49.316406 45 48.75C45.796875 47.671875 45.734375 46.246094 45.5625 45.28125C45.621094 45.257813 45.660156 45.210938 45.71875 45.1875C46.710938 44.785156 47.976563 44.285156 48.28125 42.53125C48.449219 41.859375 48.414063 40.855469 47.84375 40.03125C47.503906 39.546875 46.859375 38.949219 45.625 38.8125C44.300781 38.667969 43.421875 39.429688 42.8125 39.96875C42.625 40.136719 42.339844 40.433594 42.125 40.40625C40.929688 39.855469 36.582031 37.722656 36 37.4375 Z M 13.96875 37.53125C12.621094 38.164063 8.929688 39.894531 7.8125 40.375C7.792969 40.382813 7.738281 40.429688 7.71875 40.4375C7.609375 40.410156 7.339844 40.164063 7.15625 40C6.550781 39.449219 5.742188 38.664063 4.28125 38.8125C3.160156 38.9375 2.546875 39.457031 2.21875 39.875C1.53125 40.746094 1.523438 41.863281 1.59375 42.4375C1.597656 42.472656 1.617188 42.496094 1.625 42.53125C2.035156 44.28125 3.210938 44.757813 4.15625 45.15625C4.21875 45.183594 4.28125 45.226563 4.34375 45.25C4.183594 46.1875 4.125 47.648438 4.9375 48.75C5.355469 49.316406 6.164063 50 7.6875 50C10.035156 50 10.667969 47.949219 11.03125 46.71875C11.136719 46.367188 11.273438 45.8125 11.34375 45.71875C12.5625 44.90625 16.121094 43.167969 17.15625 42.65625C15.507813 41.421875 14.316406 40.195313 14.15625 39.71875C14.0625 39.390625 14.019531 38.867188 13.96875 37.53125Z" fill="#5B5B5B" />
</svg>

<svg xmlns="http://www.w3.org/2000/svg" viewBox="0 0 50 50"><path d="M25 0C15.625 0 8 5.977 8 13.313c0 2.98.77 4.39 1.5 5.78.656 1.25 1.258 2.458 1.438 4.97C11.94 22.422 13 20.59 13 18.405c0-2.816-.96-6.093-.969-6.125a1.013 1.013 0 01.688-1.25 1.016 1.016 0 011.25.688c.043.144 1.031 3.578 1.031 6.687 0 2.887-1.398 5.184-2.531 7.032-.395.644-.766 1.226-1.031 1.78.609.895 1.863 1.25 3.874 1.563 2.086.324 4.688.703 4.688 3.407 0 .546 1.992 1.906 5 1.906s5-1.36 5-1.907c0-2.765 2.613-3.152 4.719-3.468 1.984-.301 3.238-.625 3.843-1.5-.269-.551-.636-1.137-1.03-1.782C36.397 23.59 35 21.294 35 18.407c0-3.11.988-6.544 1.031-6.688.157-.531.719-.84 1.25-.688.528.156.844.719.688 1.25-.008.031-.969 3.309-.969 6.125 0 2.184 1.059 4.043 2.063 5.688.18-2.442.792-3.64 1.437-4.875.738-1.407 1.5-2.856 1.5-5.907C42 5.978 34.375 0 25 0zm-5.188 18c1.9 0 3.188 1.988 3.188 3.688 0 2.6-1.707 4.312-4.406 4.312C17.492 26 16 24.988 16 21.687c0-2.1 1.613-3.687 3.813-3.687zm10.375 0c2.2 0 3.813 1.586 3.813 3.688 0 3.3-1.492 4.312-2.594 4.312C28.707 26 27 24.29 27 21.687 27 19.988 28.29 18 30.188 18zM4.563 21.031c-1.117-.043-2.136.535-2.718 1.625a4.086 4.086 0 00-.313 3.032C.52 26.387 0 27.245 0 28.905c0 1.973 1.555 3.688 3.313 3.688.917 0 1.449-.266 1.812-.438.23-.105.313-.125.406-.125.14 0 .434.078 1.094.407l7.281 2.968c-.078-1.8-.234-3.843-.5-4.937-1.523-.34-2.797-.907-3.625-2.125a1.948 1.948 0 01-.156-1.969c.023-.047.07-.11.094-.156-.328-.125-.653-.262-.969-.375-.637-.23-.723-.469-.844-1.344-.133-.953-.332-2.379-2.218-3.219a3.099 3.099 0 00-1.125-.25zm40.876 0a3.277 3.277 0 00-1.157.25c-1.879.836-2.082 2.297-2.218 3.25-.122.875-.16 1.098-.844 1.344-.297.121-.606.246-.907.375.016.031.047.063.063.094a2.035 2.035 0 01-.156 2.031c-.852 1.23-2.235 1.738-3.782 2.063-.222 1.136-.316 3.074-.374 4.78l7.374-2.812c.594-.297.891-.375 1.032-.375.093 0 .176.051.406.157.363.171.895.406 1.813.406 1.757 0 3.312-1.719 3.312-3.688 0-1.582-.492-2.386-1.531-3.156.304-.988.191-2.148-.313-3.094-.582-1.086-1.597-1.668-2.718-1.625zM24.905 26c1.2 0 3.094 4.21 3.094 4.813 0 .699-.488 1.093-1.188 1.093-.8 0-1.707-2.207-1.906-2.906h-.093c-.7 2-1.32 3-1.72 3-.8 0-1.093-.508-1.093-1.406C22 28.992 23.707 26 24.906 26zm-9.375 4.813c.274 1.75.367 4.273.438 6.218.027.785.058 1.64.094 2C16.848 39.996 21.578 44 25 44c3.438 0 8.215-4.02 8.938-5.031.027-.293.074-1.235.093-2.063.059-2.32.13-4.511.344-6.093-.625.105-1.113.218-1.469.343-.129.79-.222 1.5-.312 2.157C31.964 37.94 31.41 40 25 40c-6.504 0-7.055-2.055-7.656-6.719-.082-.636-.164-1.332-.282-2.093a10.296 10.296 0 00-1.53-.375zm4.031 3.812c.317 1.953.75 2.844 2.438 3.188v-2.094c-.945-.258-1.781-.64-2.438-1.094zm10.813.063c-.645.433-1.465.78-2.375 1.03v2.063c1.61-.347 2.05-1.195 2.375-3.093zM24 36.062V38c.313.008.64 0 1 0s.688.008 1 0v-1.938c-.328.028-.66.032-1 .032-.34 0-.672-.004-1-.032zm12 1.376c-.04 1.507-.063 1.91-.156 2.187-.16.563-1.367 1.816-3.032 3.063 1.52.738 4.7 2.296 5.688 3 .113.124.27.68.375 1.03.363 1.231.965 3.282 3.313 3.282 1.558 0 2.39-.684 2.812-1.25.797-1.078.734-2.504.563-3.469.058-.023.097-.07.156-.093.992-.403 2.258-.903 2.562-2.657.168-.672.133-1.676-.437-2.5-.34-.484-.985-1.082-2.219-1.218-1.324-.145-2.203.617-2.813 1.156-.187.168-.472.465-.687.437-1.195-.55-5.543-2.683-6.125-2.968zm-22.031.093c-1.348.633-5.04 2.364-6.156 2.844-.02.008-.075.055-.094.063-.11-.028-.38-.274-.563-.438-.605-.55-1.414-1.336-2.875-1.188-1.12.126-1.734.645-2.062 1.063-.688.871-.696 1.988-.625 2.563.004.035.023.058.031.093.41 1.75 1.586 2.227 2.531 2.625.063.028.125.07.188.094-.16.938-.219 2.398.593 3.5.418.566 1.227 1.25 2.75 1.25 2.348 0 2.981-2.05 3.344-3.281.106-.352.242-.907.313-1 1.219-.813 4.777-2.551 5.812-3.063-1.648-1.234-2.84-2.46-3-2.937-.094-.328-.136-.852-.187-2.188z" fill="#5B5B5B"/></svg>
